X:99008
T:The Honeymoon
P:Oh gin I were where Gadie rins
C:Traditional
R:Reel (8x32)
B:RSCDS Gr-8
Z:Anselm Lingnau <anselm@strathspey.org>
M:2/4
L:1/16
K:C
|:A|"C"G2GA c2cd|e2e2e2 dc|"C+"e2e2e2 dc|"Dm"d2de "G7"edcA|
    "C"G2GA c2cd|e2e2e2 dc|"G7"g2G2 [G2F2]AB|"C"[c6G6E6]:|
|:a2|"C"g2e2e2 "A7"g2|"Dm"f2d2"G7"d2 gf|\
         "C"e2c2"Em"e2g2|"Am"c'bc'e' "Dm"d'c'"G7"ba|
     "C"g2e2e2 "A7"g2|"Dm"f2d2"G7"d2 gf|"C"e2c2 [e2c2]"G7"[g2B2]|"C"[c'6e6]:|

